theme/images/content/images/nimbly-icon-trans.svg

<svg height="460.994" viewBox="0 0 461 460.994" width="461" xmlns="http://www.w3.org/2000/svg" xmlns:xlink="http://www.w3.org/1999/xlink"><linearGradient id="a" gradientUnits="objectBoundingBox" x1=".5" x2=".5" y2="1"><stop offset="0" stop-color="#c099fb"/><stop offset="1" stop-color="#f3f6f8"/></linearGradient><path d="m307.612 153.4a130.4 130.4 0 0 1 115.7 35.555 133.788 133.788 0 0 1 -2.75 188.922l-83.147 83.123-34.9-34.9 83.125-83.125a82.319 82.319 0 1 0 -116.34-116.367l-83.125 83.125-34.9-34.9 83.125-83.125a83.6 83.6 0 0 0 1.7-118.075 83.6 83.6 0 0 0 -118.065 1.712l-83.135 83.125-34.9-34.899 83.125-83.125a133.778 133.778 0 0 1 188.912-2.76 130.454 130.454 0 0 1 35.563 115.714m-116.474.1-83.126 83.13a83.6 83.6 0 0 0 -1.712 118.085 83.6 83.6 0 0 0 118.075-1.722l83.125-83.125 34.9 34.9-83.125 83.125a133.778 133.778 0 0 1 -188.912 2.76 133.788 133.788 0 0 1 2.76-188.922l83.127-83.131z" fill="url(#a)" opacity=".2" transform="translate(0 -.001)"/></svg>

<svg xmlns="http://www.w3.org/2000/svg" xmlns:xlink="http://www.w3.org/1999/xlink" width="461" height="460.994" viewBox="0 0 461 460.994">
  <defs>
    <linearGradient id="linear-gradient" x1="0.5" x2="0.5" y2="1" gradientUnits="objectBoundingBox">
      <stop offset="0" stop-color="#c099fb"/>
      <stop offset="1" stop-color="#f3f6f8"/>
    </linearGradient>
  </defs>
  <g id="logo_icon_trans" transform="translate(-1102 -209.586)" opacity="0.2">
    <path id="Path_98" data-name="Path 98" d="M307.612,153.4a130.4,130.4,0,0,1,115.7,35.555,133.788,133.788,0,0,1-2.75,188.922L337.415,461l-34.9-34.9,83.125-83.125A82.319,82.319,0,1,0,269.3,226.608l-83.125,83.125-34.9-34.9L234.4,191.708a83.6,83.6,0,0,0,1.7-118.075,83.6,83.6,0,0,0-118.065,1.712L34.9,158.47,0,123.571,83.125,40.446a133.778,133.778,0,0,1,188.912-2.76A130.454,130.454,0,0,1,307.6,153.4m-116.474.1L108,236.63a83.6,83.6,0,0,0-1.712,118.085,83.6,83.6,0,0,0,118.075-1.722l83.125-83.125,34.9,34.9-83.125,83.125a133.778,133.778,0,0,1-188.912,2.76,133.788,133.788,0,0,1,2.76-188.922L156.238,118.6Z" transform="translate(1102 209.585)" fill="url(#linear-gradient)"/>
  </g>
</svg>
